X: 5505
T: Bunratty Boys
R: slide
M: 12/8
K: Dmajor
|:d2 f|e3 efe d2 f a2 f|e3 efe d2 B B2 A|
e3 efe d2 f a2 f|ede f2 e d3:|
|:dcB|A2 a f2 a A2 a f2 a|e3 efe d2 B B2 d|
A2 a f2 a A2 a f2 a|e3 efe d3:|

